icons/status-replay.svg

<svg width="20" height="20" viewBox="0 0 20 20" fill="none" xmlns="http://www.w3.org/2000/svg">
<g id="icon/av/replay_24px">
<path id="icon/av/replay_24px_2" d="M9.73325 4.8665V1.6665L5.73325 5.6665L9.73325 9.6665V6.4665C12.3813 6.4665 14.5332 8.6185 14.5332 11.2665C14.5332 13.9145 12.3813 16.0665 9.73325 16.0665C7.08525 16.0665 4.93325 13.9145 4.93325 11.2665H3.33325C3.33325 14.8025 6.19725 17.6665 9.73325 17.6665C13.2692 17.6665 16.1332 14.8025 16.1332 11.2665C16.1332 7.7305 13.2692 4.8665 9.73325 4.8665Z" fill="#222222"/>
</g>
</svg>

<svg width="20" height="20" fill="none" xmlns="http://www.w3.org/2000/svg"><path d="M9.733 4.867v-3.2l-4 4 4 4v-3.2c2.648 0 4.8 2.151 4.8 4.8 0 2.648-2.152 4.8-4.8 4.8a4.804 4.804 0 0 1-4.8-4.8h-1.6c0 3.536 2.864 6.4 6.4 6.4 3.536 0 6.4-2.865 6.4-6.4 0-3.536-2.864-6.4-6.4-6.4z" fill="#222"/></svg>
